!!!COM: Ce/sar Franck
!!!CNT: Francais
!!!TXO: Francais
!!!OTL: Le Mariage des Roses
!!!LYR: David
!!!OPR:
!!!OPS: FWV 80
!!!ONM: 
!!!ENC: Ben Fuhrman
!!!YOR: CD Sheet Music French Art Songs, The Ultimate Collectio
!!!YOR: CD Sheet Music, LLC 200
!!!ODT: 1871
!!NB: Vocal melody and text encoded
!!NB: First instance of melodic material only encoded
!!created: 2/15/10 3:50PM
!!proofed and posted: 2/15/10 3:53PM
**kern	**silbe
*clefG2	*
*k[f#c#g#d#a#]	*
*M6/8	*
*MM[Poco allegretto]	*
=6	=6
4r	.
8r	.
4r	.
{8f#	{Mi-
=7	=7
4b	-gnon-
8b	-ne,
8b	sais~
8cc#	~tu
8dd#	com-
=8	=8
4f#	-ment
8f#	s'e/-
8g#	-pou-
8f#	-sent
8e	les
=9	=9
4.f#	ro-
8f#}	-ses?}
8r	.
{8f#	{Ah!
=10	=10
4b	cet
8a#	hy-
8b	-men
8cc#	est
8dd#	char-
=11	=11
[2.dd#	-mant,
=12	=12
8dd#]	|
8g#	cet
8f##	hy-
8g#	-men
8a#	est
8b	char-
=13	=13
[4.cc#	-mant!
4cc#]}	|}
8r	.
=14	=14
{4ee	{Quel-
8dd#	-les
4dd#	ten-
8cc#	-dres
=15	=15
[4.cc#	cho-
8cc#]	-ses
8b	El-
8cc#	-les
=16	=16
4dd#	di-
8b	-sent
4b	en
8a#	ou-
=17	=17
[4.a#	-vrant
8a#]	|
8g#	Leurs
8f#	pau-
=18	=18
([4.a#	-pie\-
8a#]	|
8g#)	|
8f#	-res
=19	=19
[4.a#	clo-
8a#]}	-ses!}
8r	.
{8a#	{Mi-
=20	=20
4b	-gnon-
8b	-ne,
8b	sais~
8cc#	~tu
8dd#	com-
=21	=21
4f#	-ment
8f#	S'e/-
8g#	-pou-
8f#	-sent
8e	les
=22	=22
4.f#	ro-
8f#}	-ses?}
8r	.
8r	.
=23	=23
{4b	{el-
8f#	-les
4b	di-
8a#	-sent:
=24	=24
4b	aim-
8f#	-ons
[4.f#	nous!
=25	=25
4f#]	|
8b	si
8a#	sourte
8b	est
8cc#	la
=26	=26
4.ddn	vi-
4b}	-e!}
8r	.
=27	=27
{4ddn	{Ay-
8an	-ons
4ddn	les
8cc#	bai-
=28	=28
4ddn	-sers
8an	plus
[4.an	doux
=29	=29
4an]	|
8ddn	L'a^-
8cc#	-me
8ddn	plus
8ee	ra-
=30	=30
4.ff#	-vi-
4ddn}	-e!}
8r	.
=31	=31
{4ff#	{Pend-
8cc#	-ant
4ee	que
8ddn	l'homme
=32	=32
4cc#	a\
8an	gen-
[4.f#	-oux
=33	=33
4f#]	|
8an	Doute,
8g#	es-
8an	-pe\re
8b	ou
=34	=34
4.cc#	pri-
4cc#}	-e!}
8r	.
=35	=35
{4dd#	{O^
8f#	mes
4f#	soeurs,
8cc#	em-
=36	=36
4dd#	-bras-
8ff#	-sons~
[4.ff#	~nous!
=37	=37
4ff#]	|
8b	Si
8b	courte
8cc#	est
8dd#	la
=38	=38
4.cc#	vi-
4b}	-e!}
8r	.
!! Rest to measure 44
=44	=44
4r	.
8r	.
4r	.
{8f#	{Croix~
=45	=45
4b	~moi
8b	mi-
8b	-gnon-
8cc#	-ne,
8dd#	croix~
=46	=46
4f#	~moi,
8f#	Ai-
8g#	-mons~
8f#	~nous
8e	comme
=47	=47
4.f#	el-
8f#}	-les,}
8r	.
{8f#	{Vois,
=48	=48
4b	le
8a#	prin-
8b	-temps
8cc#	vient
8dd#	a\
=49	=49
[2.dd#	toi,
=50	=50
8dd#]	|
8g#	Le
8f##	prin-
8g#	-temps
8a#	vient
8b	a\
=51	=51
[4.cc#	toi
4cc#]}	|}
8r	.
=52	=52
{4ee	{Et
8dd#	des
4dd#	hi-
8cc#	-ron-
=53	=53
[4.cc#	-del-
8cc#]	-les
8b	Ai-
8cc#	-mer
=54	=54
4dd#	est
8b	l'u-
4b	-ni-
8a#	-que
=55	=55
[4.a#	loi
8a#]	|
8g#	A
8f#	leurs
=56	=56
[4.a#	nids
(8a#]	|
8g#)	|
8f#	fi-
=57	=57
4a#	-de\-
8a#}	-les.}
8r	.
{8a#	O
8a#	ma
=58	=58
[4b	rei-
8b]	-ne,
8r	.
8cc#	suis
8dd#	ton
=59	=59
4f#	roi,
8f#	Ai-
8g#	-mons~
8f#	nous
8e	comme
=60	=60
4.f#	el-
8f#}	-les.}
8r	.
8r	.
=61	=61
{4b	{ex-
8f#	-cep-
4b	-te/
8a#	d'a-
=62	=62
4b	-voir
8f#	ai-
[4.f#	-me/
=63	=63
4f#]	|
8b	Qu'est~
8a#	~il
8b	donc
8cc#	sur
=64	=64
4.ddn	ter-
4b}	-re?}
8r	.
=65	=65
{4dd#	Votre
8an	ho-
4ddn	-ri-
8cc#	-son
=66	=66
4ddn	est
8an	fer-
[4.an	-me/
=67	=67
4an]	|
8ddn	Om-
8cc#	-bre,
8ddn	nuit,
8ee	mys-
=68	=68
4.ff#	-te\-
4ddn}	-re!}
8r	.
=69	=69
{4ff#	{Un
8cc#	seul
4ee	phare
8ddn	est
=70	=70
4cc#	al-
8an	-lu-
[4.f#	-me/
=71	=71
4f#]	|
8an	l'a-
8g#	-mour
8an	nous
8b	l'e/-
=72	=72
4.cc#	-clai-
4cc#}	-re.}
8r	.
=73	=73
{4dd#	{Ex
8f#	-cep-
4f#	-te/
8cc#	d'a-
=74	=74
4dd#	-voir
8ff#	ai-
[4.ff#	-me/
=75	=75
4ff#]	|
8b	Qu'est~
8b	~il
8cc#	donc
8dd#	sur
=76	=76
4.cc#	ter-
4b}	-re?}
8r	.
==	==
*-	*-
